X: 1801
T: Phillip's Dog
C:trad
B: australian traditional tunes wiki
M:2/4
L:1/8
R: March
Q: 1/4=100
K:G
V:1 
"G"g2g2|g2G2|g2G2|"D"ag fd|"G"g2g2|ba gf|"C"ge dc|"G(D)"B2G2:|
|:"G"B2B2|"D"d2D2|"Em"EF GA|"Bm"B2B,2|"C"CD EF|"G"GA Bc|"D"d2D2|"G"G4:|
% abcbook-tune_id 6342d53acd83a788b54baea7


% abcbook-boost 0
% abcbook-tablature 
% abcbook-transpose 
% abcbook-lastupdated 1665324384707
% abcbook-soundfonts 
% abcbook-repeats 1
% NFF Book 2020
% Bush Traditions recording played by Roland Clarke

